src/images/footer-logo.svg

<svg width="158" height="152" version="1.1" viewBox="0 0 158 152" xmlns="http://www.w3.org/2000/svg">
 <g fill="#fff">
  <path d="m59.954 150.92c-0.5695 0-1.0577-0.488-1.0577-1.057v-13.625c0-0.57 0.4882-1.058 1.0577-1.058s1.0577 0.488 1.0577 1.058v13.625c0 0.569-0.4882 1.057-1.0577 1.057z"/>
  <path d="m71.018 150.88c-0.5695 0-1.0577-0.488-1.0577-1.058v-8.419c0-0.569 0.4882-1.057 1.0577-1.057s1.0577 0.488 1.0577 1.057v8.419c0 0.61-0.4475 1.058-1.0577 1.058z"/>
  <path d="m99.249 150.92c-0.1627 0-0.2847-0.041-0.4475-0.081-0.5288-0.245-0.7729-0.895-0.4881-1.424l6.4277-13.707c0.244-0.528 0.895-0.772 1.424-0.488 0.529 0.285 0.773 0.895 0.488 1.424l-6.428 13.706c-0.203 0.367-0.5693 0.57-0.9761 0.57z"/>
  <path d="m71.017 142.46c-0.5695 0-1.0577-0.489-1.0577-1.058 0-2.603-1.6679-4.393-4.1088-4.393-0.4068 0-1.1391 0.204-1.5459 0.448-0.5288 0.285-1.139 0.081-1.4238-0.448-0.2848-0.528-0.0814-1.138 0.4475-1.423 0.6509-0.326 1.7086-0.692 2.5629-0.692 3.5392 0 6.2242 2.807 6.2242 6.508-0.0407 0.569-0.4882 1.058-1.0984 1.058z"/>
  <path d="m89.69 142.18c-0.6102 0-0.9763-0.284-1.0984-0.772-0.7322-2.563-3.0918-4.352-5.736-4.352-0.5696 0-1.0577-0.488-1.0577-1.058 0-0.569 0.4881-1.057 1.0577-1.057 3.5799 0 6.7937 2.399 7.7701 5.897 0.1627 0.529-0.2848 1.342-0.9357 1.342z"/>
  <path d="m76.061 142.18c-0.8543 0-1.1798-0.772-1.017-1.342 0.9763-3.457 4.1901-5.897 7.7701-5.897 0.5695 0 1.0577 0.488 1.0577 1.057 0 0.57-0.4882 1.058-1.0577 1.058-2.6443 0-5.0038 1.789-5.7361 4.352-0.122 0.447-0.5288 0.772-1.017 0.772z"/>
  <path d="m129.88 129c-1.179 0-2.115 0.935-2.115 2.115 0 1.179 0.936 2.115 2.115 2.115 1.18 0 2.116-0.936 2.116-2.115 0-1.18-0.936-2.115-2.116-2.115z"/>
  <path d="m129.88 150.88c-0.57 0-1.058-0.488-1.058-1.057v-13.626c0-0.569 0.488-1.057 1.058-1.057s1.058 0.488 1.058 1.057v13.626c0 0.569-0.488 1.057-1.058 1.057z"/>
  <path d="m99.206 150.92c-0.4068 0-0.773-0.244-0.9764-0.61l-6.4276-13.666c-0.2441-0.528-0.0407-1.179 0.4882-1.423 0.5288-0.244 1.1797-0.041 1.4238 0.488l6.4277 13.666c0.244 0.529 0.041 1.179-0.4882 1.423-0.1221 0.082-0.2848 0.122-0.4475 0.122z"/>
  <path d="m124.76 151.04c-1.708-0.854-3.336-2.888-3.336-6.06 0-0.57 0.488-1.058 1.058-1.058s1.058 0.488 1.058 1.058c0 1.911 0.813 3.538 2.237 4.189 0.529 0.244 0.814 0.895 0.488 1.505-0.244 0.325-0.773 0.732-1.505 0.366z"/>
  <path d="m54.949 144.13h-10.74c-0.5696 0-1.0577-0.488-1.0577-1.057 0-0.57 0.4881-1.058 1.0577-1.058h10.74c0.5695 0 1.0577 0.488 1.0577 1.058 0 0.569-0.4882 1.057-1.0577 1.057z"/>
  <path d="m54.948 144.13c-0.5696 0-1.0578-0.488-1.0578-1.058 0-3.376-2.6849-6.019-6.1428-6.019-0.5695 0-1.0577-0.488-1.0577-1.058 0-0.569 0.4882-1.057 1.0577-1.057 4.6376 0 8.2583 3.579 8.2583 8.134 0 0.57-0.4882 1.058-1.0577 1.058z"/>
  <path d="m40.792 144.13c-0.5695 0-1.0577-0.488-1.0577-1.058 0-4.474 3.6206-8.134 8.0141-8.134 0.5696 0 1.0577 0.488 1.0577 1.057 0 0.57-0.4881 1.058-1.0577 1.058-3.2138 0-5.8987 2.765-5.8987 6.019 0 0.57-0.4882 1.058-1.0577 1.058z"/>
  <path d="m47.748 151.17c-4.4342 0-8.0141-3.661-8.0141-8.135 0-0.569 0.4882-1.057 1.0577-1.057s1.0577 0.488 1.0577 1.057c0 3.701 3.0511 6.02 5.8987 6.02 0.5696 0 1.0577 0.488 1.0577 1.057 0 0.61-0.4881 1.058-1.0577 1.058z"/>
  <path d="m47.747 151.17c-0.5695 0-1.0577-0.488-1.0577-1.058 0-0.569 0.4882-1.057 1.0577-1.057 3.5393 0 5.0038-2.481 5.0851-2.563 0.2848-0.488 0.9357-0.691 1.4239-0.406 0.4882 0.284 0.6916 0.935 0.4068 1.423-0.0814 0.163-2.0747 3.661-6.9158 3.661z"/>
  <path d="m31.067 142.06c-0.5696 0-1.0577 0.488-1.0577 1.058v6.792c0 0.57 0.4881 1.058 1.0577 1.058 0.5695 0 1.0577-0.488 1.0577-1.058v-6.792c0-0.61-0.4882-1.058-1.0577-1.058z"/>
  <path d="m38.758 135.59c-1.1391-0.57-2.4002-0.773-3.6613-0.61-2.3188 0.325-4.3122 1.993-5.0445 4.23-0.2034 0.61 0.2034 1.383 1.0171 1.383 0.4475 0 0.8543-0.285 1.017-0.732 0.4882-1.505 1.7493-2.563 3.3359-2.766 0.8136-0.122 1.6679 0.04 2.4001 0.407 0.5289 0.284 1.1798 0.04 1.4239-0.448 0.2441-0.529 0.0407-1.179-0.4882-1.464z"/>
  <path d="m75.982 143.93c0.6102 0 0.9763 0.285 1.0984 0.773 0.7322 2.562 3.0918 4.352 5.736 4.352 0.5696 0 1.0577 0.488 1.0577 1.057 0 0.57-0.4881 1.058-1.0577 1.058-3.5799 0-6.7937-2.4-7.7701-5.898-0.1627-0.569 0.2848-1.342 0.9357-1.342z"/>
  <path d="m89.609 143.93c0.8543 0 1.1797 0.773 1.017 1.342-0.9764 3.458-4.1902 5.898-7.7701 5.898-0.5696 0-1.0577-0.488-1.0577-1.058 0-0.569 0.4881-1.057 1.0577-1.057 2.6442 0 5.0038-1.79 5.736-4.352 0.1221-0.488 0.5289-0.773 1.0171-0.773z"/>
  <path d="m122.56 142.18c-0.61 0-0.976-0.284-1.098-0.772-0.732-2.563-3.092-4.352-5.736-4.352-0.57 0-1.058-0.488-1.058-1.058 0-0.569 0.488-1.057 1.058-1.057 3.58 0 6.794 2.399 7.77 5.897 0.163 0.529-0.285 1.342-0.936 1.342z"/>
  <path d="m108.93 142.18c-0.854 0-1.18-0.772-1.017-1.342 0.976-3.457 4.19-5.897 7.77-5.897 0.57 0 1.058 0.488 1.058 1.057 0 0.57-0.488 1.058-1.058 1.058-2.644 0-5.004 1.789-5.736 4.352-0.122 0.447-0.529 0.772-1.017 0.772z"/>
  <path d="m108.85 143.93c0.61 0 0.977 0.285 1.099 0.773 0.732 2.562 3.091 4.352 5.736 4.352 0.569 0 1.057 0.488 1.057 1.057 0 0.57-0.488 1.058-1.057 1.058-3.58 0-6.794-2.4-7.77-5.898-0.163-0.569 0.284-1.342 0.935-1.342z"/>
  <path d="m122.44 143.93c0.854 0 1.18 0.773 1.017 1.342-0.976 3.458-4.19 5.898-7.77 5.898-0.57 0-1.058-0.488-1.058-1.058 0-0.569 0.488-1.057 1.058-1.057 2.644 0 5.004-1.79 5.736-4.352 0.163-0.488 0.569-0.773 1.017-0.773z"/>
 </g>
 <path d="m29 40.344h-1e-4v0.0902c0-0.0301 0-0.0601 1e-4 -0.0902zm-1e-4 12.998v62.814c0 1.298 0.5157 2.543 1.4336 3.461s2.1628 1.434 3.461 1.434h30.485c0.6427 0 1.2792-0.127 1.8731-0.373 0.5938-0.246 1.1334-0.606 1.5879-1.061 0.4545-0.454 0.815-0.994 1.061-1.588s0.3726-1.23 0.3726-1.873v-75.722h-28.322c-11.198 0-11.952 12.908-11.952 12.908z" clip-rule="evenodd" fill="#611aba" fill-rule="evenodd"/>
 <path d="m69.275 1.0954e-4c0.0183-4.8916e-5 0.0366-8.5432e-5 0.0548-1.0954e-4h-0.0548zm0.0548 40.327h55.541c0.643 0 1.279-0.1266 1.873-0.3726s1.133-0.6065 1.588-1.061c0.454-0.4545 0.815-0.9941 1.061-1.5879 0.246-0.5939 0.372-1.2303 0.372-1.8731v-30.538c0-1.2981-0.515-2.5431-1.433-3.461-0.918-0.9179-2.163-1.4336-3.461-1.4336h-42.773s-12.768 0.79803-12.768 11.864c0.03 0.4428 0.03 0.8872 0 1.33z" clip-rule="evenodd" fill="#ff86dd" fill-rule="evenodd"/>
</svg>

<svg width="158" height="185" viewBox="0 0 158 185" fill="none" xmlns="http://www.w3.org/2000/svg">
<path d="M59.9537 150.922C59.3842 150.922 58.896 150.434 58.896 149.865V136.24C58.896 135.67 59.3842 135.182 59.9537 135.182C60.5232 135.182 61.0114 135.67 61.0114 136.24V149.865C61.0114 150.434 60.5232 150.922 59.9537 150.922Z" fill="white"/>
<path d="M71.0184 150.882C70.4489 150.882 69.9607 150.394 69.9607 149.824V141.405C69.9607 140.836 70.4489 140.348 71.0184 140.348C71.5879 140.348 72.0761 140.836 72.0761 141.405V149.824C72.0761 150.434 71.6286 150.882 71.0184 150.882Z" fill="white"/>
<path d="M99.2489 150.924C99.0862 150.924 98.9642 150.883 98.8014 150.843C98.2726 150.598 98.0285 149.948 98.3133 149.419L104.741 135.712C104.985 135.184 105.636 134.94 106.165 135.224C106.694 135.509 106.938 136.119 106.653 136.648L100.225 150.354C100.022 150.721 99.6557 150.924 99.2489 150.924Z" fill="white"/>
<path d="M71.017 142.464C70.4475 142.464 69.9593 141.975 69.9593 141.406C69.9593 138.803 68.2914 137.013 65.8505 137.013C65.4437 137.013 64.7114 137.217 64.3046 137.461C63.7758 137.746 63.1656 137.542 62.8808 137.013C62.596 136.485 62.7994 135.875 63.3283 135.59C63.9792 135.264 65.0369 134.898 65.8912 134.898C69.4304 134.898 72.1154 137.705 72.1154 141.406C72.0747 141.975 71.6272 142.464 71.017 142.464Z" fill="white"/>
<path d="M89.6901 142.176C89.0799 142.176 88.7138 141.892 88.5917 141.404C87.8595 138.841 85.4999 137.052 82.8557 137.052C82.2861 137.052 81.798 136.564 81.798 135.994C81.798 135.425 82.2861 134.937 82.8557 134.937C86.4356 134.937 89.6494 137.336 90.6258 140.834C90.7885 141.363 90.341 142.176 89.6901 142.176Z" fill="white"/>
<path d="M76.0612 142.176C75.2069 142.176 74.8814 141.404 75.0442 140.834C76.0205 137.377 79.2343 134.937 82.8143 134.937C83.3838 134.937 83.872 135.425 83.872 135.994C83.872 136.564 83.3838 137.052 82.8143 137.052C80.17 137.052 77.8105 138.841 77.0782 141.404C76.9562 141.851 76.5494 142.176 76.0612 142.176Z" fill="white"/>
<path d="M129.885 129C128.706 129 127.77 129.935 127.77 131.115C127.77 132.294 128.706 133.23 129.885 133.23C131.065 133.23 132.001 132.294 132.001 131.115C132.001 129.935 131.065 129 129.885 129Z" fill="white"/>
<path d="M129.884 150.882C129.314 150.882 128.826 150.394 128.826 149.825V136.199C128.826 135.63 129.314 135.142 129.884 135.142C130.454 135.142 130.942 135.63 130.942 136.199V149.825C130.942 150.394 130.454 150.882 129.884 150.882Z" fill="white"/>
<path d="M99.2063 150.921C98.7995 150.921 98.4333 150.677 98.2299 150.311L91.8023 136.645C91.5582 136.117 91.7616 135.466 92.2905 135.222C92.8193 134.978 93.4702 135.181 93.7143 135.71L100.142 149.376C100.386 149.905 100.183 150.555 99.6538 150.799C99.5317 150.881 99.369 150.921 99.2063 150.921Z" fill="white"/>
<path d="M124.755 151.045C123.047 150.191 121.419 148.157 121.419 144.985C121.419 144.415 121.907 143.927 122.477 143.927C123.047 143.927 123.535 144.415 123.535 144.985C123.535 146.896 124.348 148.523 125.772 149.174C126.301 149.418 126.586 150.069 126.26 150.679C126.016 151.004 125.487 151.411 124.755 151.045Z" fill="white"/>
<path d="M54.9494 144.13H44.2096C43.64 144.13 43.1519 143.642 43.1519 143.073C43.1519 142.503 43.64 142.015 44.2096 142.015H54.9494C55.5189 142.015 56.0071 142.503 56.0071 143.073C56.0071 143.642 55.5189 144.13 54.9494 144.13Z" fill="white"/>
<path d="M54.9475 144.129C54.3779 144.129 53.8897 143.641 53.8897 143.071C53.8897 139.695 51.2048 137.052 47.7469 137.052C47.1774 137.052 46.6892 136.564 46.6892 135.994C46.6892 135.425 47.1774 134.937 47.7469 134.937C52.3845 134.937 56.0052 138.516 56.0052 143.071C56.0052 143.641 55.517 144.129 54.9475 144.129Z" fill="white"/>
<path d="M40.7916 144.129C40.2221 144.129 39.7339 143.641 39.7339 143.071C39.7339 138.597 43.3545 134.937 47.748 134.937C48.3176 134.937 48.8057 135.425 48.8057 135.994C48.8057 136.564 48.3176 137.052 47.748 137.052C44.5342 137.052 41.8493 139.817 41.8493 143.071C41.8493 143.641 41.3611 144.129 40.7916 144.129Z" fill="white"/>
<path d="M47.748 151.167C43.3138 151.167 39.7339 147.506 39.7339 143.032C39.7339 142.463 40.2221 141.975 40.7916 141.975C41.3611 141.975 41.8493 142.463 41.8493 143.032C41.8493 146.733 44.9004 149.052 47.748 149.052C48.3176 149.052 48.8057 149.54 48.8057 150.109C48.8057 150.719 48.3176 151.167 47.748 151.167Z" fill="white"/>
<path d="M47.7469 151.167C47.1774 151.167 46.6892 150.679 46.6892 150.109C46.6892 149.54 47.1774 149.052 47.7469 149.052C51.2862 149.052 52.7507 146.571 52.832 146.489C53.1168 146.001 53.7677 145.798 54.2559 146.083C54.7441 146.367 54.9475 147.018 54.6627 147.506C54.5813 147.669 52.588 151.167 47.7469 151.167Z" fill="white"/>
<path d="M31.067 142.056C30.4974 142.056 30.0093 142.544 30.0093 143.114V149.906C30.0093 150.476 30.4974 150.964 31.067 150.964C31.6365 150.964 32.1247 150.476 32.1247 149.906V143.114C32.1247 142.504 31.6365 142.056 31.067 142.056Z" fill="white"/>
<path d="M38.7576 135.588C37.6185 135.018 36.3574 134.815 35.0963 134.978C32.7775 135.303 30.7841 136.971 30.0518 139.208C29.8484 139.818 30.2552 140.591 31.0689 140.591C31.5164 140.591 31.9232 140.306 32.0859 139.859C32.5741 138.354 33.8352 137.296 35.4218 137.093C36.2354 136.971 37.0897 137.133 37.8219 137.5C38.3508 137.784 39.0017 137.54 39.2458 137.052C39.4899 136.523 39.2865 135.873 38.7576 135.588Z" fill="white"/>
<path d="M75.9822 143.927C76.5924 143.927 76.9585 144.212 77.0806 144.7C77.8128 147.262 80.1724 149.052 82.8166 149.052C83.3862 149.052 83.8743 149.54 83.8743 150.109C83.8743 150.679 83.3862 151.167 82.8166 151.167C79.2367 151.167 76.0229 148.767 75.0465 145.269C74.8838 144.7 75.3313 143.927 75.9822 143.927Z" fill="white"/>
<path d="M89.6088 143.927C90.4631 143.927 90.7885 144.7 90.6258 145.269C89.6494 148.727 86.4356 151.167 82.8557 151.167C82.2861 151.167 81.798 150.679 81.798 150.109C81.798 149.54 82.2861 149.052 82.8557 149.052C85.4999 149.052 87.8595 147.262 88.5917 144.7C88.7138 144.212 89.1206 143.927 89.6088 143.927Z" fill="white"/>
<path d="M122.562 142.176C121.952 142.176 121.586 141.892 121.464 141.404C120.732 138.841 118.372 137.052 115.728 137.052C115.158 137.052 114.67 136.564 114.67 135.994C114.67 135.425 115.158 134.937 115.728 134.937C119.308 134.937 122.522 137.336 123.498 140.834C123.661 141.363 123.213 142.176 122.562 142.176Z" fill="white"/>
<path d="M108.93 142.176C108.076 142.176 107.75 141.404 107.913 140.834C108.889 137.377 112.103 134.937 115.683 134.937C116.253 134.937 116.741 135.425 116.741 135.994C116.741 136.564 116.253 137.052 115.683 137.052C113.039 137.052 110.679 138.841 109.947 141.404C109.825 141.851 109.418 142.176 108.93 142.176Z" fill="white"/>
<path d="M108.853 143.927C109.463 143.927 109.83 144.212 109.952 144.7C110.684 147.262 113.043 149.052 115.688 149.052C116.257 149.052 116.745 149.54 116.745 150.109C116.745 150.679 116.257 151.167 115.688 151.167C112.108 151.167 108.894 148.767 107.918 145.269C107.755 144.7 108.202 143.927 108.853 143.927Z" fill="white"/>
<path d="M122.437 143.927C123.291 143.927 123.617 144.7 123.454 145.269C122.478 148.727 119.264 151.167 115.684 151.167C115.114 151.167 114.626 150.679 114.626 150.109C114.626 149.54 115.114 149.052 115.684 149.052C118.328 149.052 120.688 147.262 121.42 144.7C121.583 144.212 121.989 143.927 122.437 143.927Z" fill="white"/>
<g filter="url(#filter0_dddddd)">
<path fill-rule="evenodd" clip-rule="evenodd" d="M29.0001 40.3445H29V40.4347C29 40.4046 29 40.3746 29.0001 40.3445ZM29 53.3427V116.157C29 117.455 29.5157 118.7 30.4336 119.618C31.3515 120.536 32.5964 121.052 33.8946 121.052H64.3792C65.0219 121.052 65.6584 120.925 66.2523 120.679C66.8461 120.433 67.3857 120.073 67.8402 119.618C68.2947 119.164 68.6552 118.624 68.9012 118.03C69.1472 117.436 69.2738 116.8 69.2738 116.157V40.4347H40.9519C29.7537 40.4347 29 53.3427 29 53.3427Z" fill="#611ABA"/>
</g>
<g filter="url(#filter1_dddddd)">
<path fill-rule="evenodd" clip-rule="evenodd" d="M69.275 0.000109543C69.2933 6.06269e-05 69.3116 2.41111e-05 69.3298 0H69.275V0.000109543ZM69.3298 40.327H124.871C125.514 40.327 126.15 40.2004 126.744 39.9544C127.338 39.7084 127.877 39.3479 128.332 38.8934C128.786 38.4389 129.147 37.8993 129.393 37.3055C129.639 36.7116 129.765 36.0752 129.765 35.4324V4.89457C129.765 3.59645 129.25 2.35149 128.332 1.43358C127.414 0.515675 126.169 0 124.871 0H82.0983C82.0983 0 69.3298 0.798029 69.3298 11.864C69.3598 12.3068 69.3598 12.7512 69.3298 13.194V40.327Z" fill="#FF86DD"/>
</g>
<defs>
<filter id="filter0_dddddd" x="0.934258" y="40.3445" width="96.4052" height="143.855" filterUnits="userSpaceOnUse" color-interpolation-filters="sRGB">
<feFlood flood-opacity="0" result="BackgroundImageFix"/>
<feColorMatrix in="SourceAlpha" type="matrix" values="0 0 0 0 0 0 0 0 0 0 0 0 0 0 0 0 0 0 127 0"/>
<feOffset dy="0.970814"/>
<feGaussianBlur stdDeviation="0.388326"/>
<feColorMatrix type="matrix" values="0 0 0 0 0.243137 0 0 0 0 0 0 0 0 0 0.54902 0 0 0 0.0196802 0"/>
<feBlend mode="normal" in2="BackgroundImageFix" result="effect1_dropShadow"/>
<feColorMatrix in="SourceAlpha" type="matrix" values="0 0 0 0 0 0 0 0 0 0 0 0 0 0 0 0 0 0 127 0"/>
<feOffset dy="2.333"/>
<feGaussianBlur stdDeviation="0.9332"/>
<feColorMatrix type="matrix" values="0 0 0 0 0.243137 0 0 0 0 0 0 0 0 0 0.54902 0 0 0 0.0282725 0"/>
<feBlend mode="normal" in2="effect1_dropShadow" result="effect2_dropShadow"/>
<feColorMatrix in="SourceAlpha" type="matrix" values="0 0 0 0 0 0 0 0 0 0 0 0 0 0 0 0 0 0 127 0"/>
<feOffset dy="4.39283"/>
<feGaussianBlur stdDeviation="1.75713"/>
<feColorMatrix type="matrix" values="0 0 0 0 0.243137 0 0 0 0 0 0 0 0 0 0.54902 0 0 0 0.035 0"/>
<feBlend mode="normal" in2="effect2_dropShadow" result="effect3_dropShadow"/>
<feColorMatrix in="SourceAlpha" type="matrix" values="0 0 0 0 0 0 0 0 0 0 0 0 0 0 0 0 0 0 127 0"/>
<feOffset dy="7.83606"/>
<feGaussianBlur stdDeviation="3.13443"/>
<feColorMatrix type="matrix" values="0 0 0 0 0.243137 0 0 0 0 0 0 0 0 0 0.54902 0 0 0 0.0417275 0"/>
<feBlend mode="normal" in2="effect3_dropShadow" result="effect4_dropShadow"/>
<feColorMatrix in="SourceAlpha" type="matrix" values="0 0 0 0 0 0 0 0 0 0 0 0 0 0 0 0 0 0 127 0"/>
<feOffset dy="14.6565"/>
<feGaussianBlur stdDeviation="5.8626"/>
<feColorMatrix type="matrix" values="0 0 0 0 0.243137 0 0 0 0 0 0 0 0 0 0.54902 0 0 0 0.0503198 0"/>
<feBlend mode="normal" in2="effect4_dropShadow" result="effect5_dropShadow"/>
<feColorMatrix in="SourceAlpha" type="matrix" values="0 0 0 0 0 0 0 0 0 0 0 0 0 0 0 0 0 0 127 0"/>
<feOffset dy="35.0822"/>
<feGaussianBlur stdDeviation="14.0329"/>
<feColorMatrix type="matrix" values="0 0 0 0 0.244062 0 0 0 0 0 0 0 0 0 0.55 0 0 0 0.07 0"/>
<feBlend mode="normal" in2="effect5_dropShadow" result="effect6_dropShadow"/>
<feBlend mode="normal" in="SourceGraphic" in2="effect6_dropShadow" result="shape"/>
</filter>
<filter id="filter1_dddddd" x="41.2093" y="0" width="116.622" height="103.475" filterUnits="userSpaceOnUse" color-interpolation-filters="sRGB">
<feFlood flood-opacity="0" result="BackgroundImageFix"/>
<feColorMatrix in="SourceAlpha" type="matrix" values="0 0 0 0 0 0 0 0 0 0 0 0 0 0 0 0 0 0 127 0"/>
<feOffset dy="0.970814"/>
<feGaussianBlur stdDeviation="0.388326"/>
<feColorMatrix type="matrix" values="0 0 0 0 0.380392 0 0 0 0 0 0 0 0 0 0.27451 0 0 0 0.02 0"/>
<feBlend mode="normal" in2="BackgroundImageFix" result="effect1_dropShadow"/>
<feColorMatrix in="SourceAlpha" type="matrix" values="0 0 0 0 0 0 0 0 0 0 0 0 0 0 0 0 0 0 127 0"/>
<feOffset dy="2.333"/>
<feGaussianBlur stdDeviation="0.9332"/>
<feColorMatrix type="matrix" values="0 0 0 0 0.380392 0 0 0 0 0 0 0 0 0 0.27451 0 0 0 0.0282725 0"/>
<feBlend mode="normal" in2="effect1_dropShadow" result="effect2_dropShadow"/>
<feColorMatrix in="SourceAlpha" type="matrix" values="0 0 0 0 0 0 0 0 0 0 0 0 0 0 0 0 0 0 127 0"/>
<feOffset dy="4.39283"/>
<feGaussianBlur stdDeviation="1.75713"/>
<feColorMatrix type="matrix" values="0 0 0 0 0.380392 0 0 0 0 0 0 0 0 0 0.27451 0 0 0 0.035 0"/>
<feBlend mode="normal" in2="effect2_dropShadow" result="effect3_dropShadow"/>
<feColorMatrix in="SourceAlpha" type="matrix" values="0 0 0 0 0 0 0 0 0 0 0 0 0 0 0 0 0 0 127 0"/>
<feOffset dy="7.83606"/>
<feGaussianBlur stdDeviation="3.13443"/>
<feColorMatrix type="matrix" values="0 0 0 0 0.380392 0 0 0 0 0 0 0 0 0 0.27451 0 0 0 0.04 0"/>
<feBlend mode="normal" in2="effect3_dropShadow" result="effect4_dropShadow"/>
<feColorMatrix in="SourceAlpha" type="matrix" values="0 0 0 0 0 0 0 0 0 0 0 0 0 0 0 0 0 0 127 0"/>
<feOffset dy="14.6565"/>
<feGaussianBlur stdDeviation="5.8626"/>
<feColorMatrix type="matrix" values="0 0 0 0 0.380392 0 0 0 0 0 0 0 0 0 0.27451 0 0 0 0.05 0"/>
<feBlend mode="normal" in2="effect4_dropShadow" result="effect5_dropShadow"/>
<feColorMatrix in="SourceAlpha" type="matrix" values="0 0 0 0 0 0 0 0 0 0 0 0 0 0 0 0 0 0 127 0"/>
<feOffset dy="35.0822"/>
<feGaussianBlur stdDeviation="14.0329"/>
<feColorMatrix type="matrix" values="0 0 0 0 0.379167 0 0 0 0 0 0 0 0 0 0.272624 0 0 0 0.07 0"/>
<feBlend mode="normal" in2="effect5_dropShadow" result="effect6_dropShadow"/>
<feBlend mode="normal" in="SourceGraphic" in2="effect6_dropShadow" result="shape"/>
</filter>
</defs>
</svg>
